svg/color/alta.svg

<?xml version="1.0" encoding="UTF-8" ?>
<!DOCTYPE svg PUBLIC "-//W3C//DTD SVG 1.1//EN" "http://www.w3.org/Graphics/SVG/1.1/DTD/svg11.dtd">
<svg width="250pt" height="250pt" viewBox="0 0 250 250" version="1.1" xmlns="http://www.w3.org/2000/svg">
<g id="#ffffffff">
<path fill="#ffffff" opacity="1.00" d=" M 0.00 0.00 L 117.59 0.00 C 102.34 1.28 87.17 4.69 73.29 11.26 C 41.86 25.58 16.84 53.36 6.17 86.24 C 2.61 96.67 1.43 107.68 0.00 118.55 L 0.00 0.00 Z" />
<path fill="#ffffff" opacity="1.00" d=" M 139.14 0.00 L 250.00 0.00 L 250.00 115.58 C 248.80 108.15 247.66 100.70 245.92 93.37 C 235.42 51.48 201.33 16.64 159.80 4.94 C 153.09 2.56 145.92 2.10 139.14 0.00 Z" />
<path fill="#ffffff" opacity="1.00" d=" M 111.36 92.30 C 113.44 91.37 115.78 91.57 118.00 91.51 C 132.68 91.61 147.36 91.50 162.04 91.56 C 166.75 91.62 172.06 94.87 172.26 100.00 C 172.04 105.55 166.06 108.80 161.02 108.52 C 145.67 108.46 130.31 108.56 114.96 108.47 C 110.48 108.34 104.88 105.06 105.20 100.00 C 104.79 96.22 108.27 93.61 111.36 92.30 Z" />
<path fill="#ffffff" opacity="1.00" d=" M 67.37 117.34 C 69.13 116.52 71.10 116.57 72.99 116.52 C 98.34 116.60 123.70 116.52 149.05 116.56 C 152.26 116.51 155.41 118.08 157.44 120.55 C 159.28 122.72 158.97 125.91 158.34 128.49 C 156.38 131.61 152.75 133.68 149.03 133.49 C 123.68 133.50 98.33 133.44 72.99 133.52 C 68.61 134.01 63.99 131.87 62.06 127.80 C 60.11 123.58 63.45 118.89 67.37 117.34 Z" />
<path fill="#ffffff" opacity="1.00" d=" M 170.37 117.32 C 175.92 115.71 183.28 115.82 187.11 120.85 C 189.44 123.56 188.89 127.96 186.21 130.24 C 182.61 134.15 176.84 133.82 172.01 133.29 C 168.22 132.34 163.88 129.41 164.22 125.00 C 163.93 121.27 167.19 118.53 170.37 117.32 Z" />
<path fill="#ffffff" opacity="1.00" d=" M 244.31 162.26 C 247.59 153.31 248.87 143.83 250.00 134.41 L 250.00 250.00 L 133.43 250.00 C 139.79 249.15 146.14 248.10 152.45 246.91 C 195.29 237.96 231.77 204.15 244.31 162.26 Z" />
<path fill="#ffffff" opacity="1.00" d=" M 0.00 138.99 C 2.00 145.59 2.47 152.54 4.73 159.07 C 13.58 190.85 35.73 218.58 64.60 234.46 C 73.76 239.70 83.75 243.25 93.84 246.21 C 99.13 247.64 104.62 248.23 109.83 250.00 L 0.00 250.00 L 0.00 138.99 Z" />
<path fill="#ffffff" opacity="1.00" d=" M 99.33 142.24 C 101.77 141.31 104.44 141.61 107.00 141.54 C 116.69 141.68 126.38 141.45 136.06 141.63 C 140.76 141.95 146.20 145.75 145.46 151.01 C 144.70 155.75 139.55 158.69 135.03 158.49 C 124.34 158.47 113.65 158.49 102.96 158.48 C 98.41 158.69 93.64 155.57 92.73 150.97 C 92.18 146.83 95.64 143.41 99.33 142.24 Z" />
<path fill="#ffffff" opacity="1.00" d=" M 157.35 142.28 C 163.10 140.61 170.84 141.06 174.40 146.59 C 177.46 151.44 172.87 157.17 167.97 158.20 C 162.87 158.88 156.76 159.21 152.93 155.09 C 150.67 153.25 150.97 149.95 151.43 147.38 C 152.45 144.86 154.93 143.27 157.35 142.28 Z" />
</g>
<g id="#24e38fff">
<path fill="#24e38f" opacity="1.00" d=" M 117.59 0.00 L 139.14 0.00 C 145.92 2.10 153.09 2.56 159.80 4.94 C 201.33 16.64 235.42 51.48 245.92 93.37 C 247.66 100.70 248.80 108.15 250.00 115.58 L 250.00 134.41 C 248.87 143.83 247.59 153.31 244.31 162.26 C 231.77 204.15 195.29 237.96 152.45 246.91 C 146.14 248.10 139.79 249.15 133.43 250.00 L 109.83 250.00 C 104.62 248.23 99.13 247.64 93.84 246.21 C 83.75 243.25 73.76 239.70 64.60 234.46 C 35.73 218.58 13.58 190.85 4.73 159.07 C 2.47 152.54 2.00 145.59 0.00 138.99 L 0.00 118.55 C 1.43 107.68 2.61 96.67 6.17 86.24 C 16.84 53.36 41.86 25.58 73.29 11.26 C 87.17 4.69 102.34 1.28 117.59 0.00 M 111.36 92.30 C 108.27 93.61 104.79 96.22 105.20 100.00 C 104.88 105.06 110.48 108.34 114.96 108.47 C 130.31 108.56 145.67 108.46 161.02 108.52 C 166.06 108.80 172.04 105.55 172.26 100.00 C 172.06 94.87 166.75 91.62 162.04 91.56 C 147.36 91.50 132.68 91.61 118.00 91.51 C 115.78 91.57 113.44 91.37 111.36 92.30 M 67.37 117.34 C 63.45 118.89 60.11 123.58 62.06 127.80 C 63.99 131.87 68.61 134.01 72.99 133.52 C 98.33 133.44 123.68 133.50 149.03 133.49 C 152.75 133.68 156.38 131.61 158.34 128.49 C 158.97 125.91 159.28 122.72 157.44 120.55 C 155.41 118.08 152.26 116.51 149.05 116.56 C 123.70 116.52 98.34 116.60 72.99 116.52 C 71.10 116.57 69.13 116.52 67.37 117.34 M 170.37 117.32 C 167.19 118.53 163.93 121.27 164.22 125.00 C 163.88 129.41 168.22 132.34 172.01 133.29 C 176.84 133.82 182.61 134.15 186.21 130.24 C 188.89 127.96 189.44 123.56 187.11 120.85 C 183.28 115.82 175.92 115.71 170.37 117.32 M 99.33 142.24 C 95.64 143.41 92.18 146.83 92.73 150.97 C 93.64 155.57 98.41 158.69 102.96 158.48 C 113.65 158.49 124.34 158.47 135.03 158.49 C 139.55 158.69 144.70 155.75 145.46 151.01 C 146.20 145.75 140.76 141.95 136.06 141.63 C 126.38 141.45 116.69 141.68 107.00 141.54 C 104.44 141.61 101.77 141.31 99.33 142.24 M 157.35 142.28 C 154.93 143.27 152.45 144.86 151.43 147.38 C 150.97 149.95 150.67 153.25 152.93 155.09 C 156.76 159.21 162.87 158.88 167.97 158.20 C 172.87 157.17 177.46 151.44 174.40 146.59 C 170.84 141.06 163.10 140.61 157.35 142.28 Z" />
</g>
</svg>

<?xml version="1.0" encoding="utf-8"?>
<!-- Generator: Adobe Illustrator 26.0.3, SVG Export Plug-In . SVG Version: 6.00 Build 0)  -->
<svg version="1.1" id="Layer_1" xmlns="http://www.w3.org/2000/svg" xmlns:xlink="http://www.w3.org/1999/xlink" x="0px" y="0px"
	 viewBox="0 0 250 250" style="enable-background:new 0 0 250 250;" xml:space="preserve">
<style type="text/css">
	.st0{fill:#FFFFFF;}
	.st1{fill:#24E38F;}
</style>
<g id="_x23_ffffffff">
	<path class="st0" d="M111.4,92.3c2.1-0.9,4.4-0.7,6.6-0.8c14.7,0.1,29.4,0,44,0c4.7,0.1,10,3.3,10.2,8.4c-0.2,5.6-6.2,8.8-11.2,8.5
		c-15.4-0.1-30.7,0-46.1,0c-4.5-0.1-10.1-3.4-9.8-8.5C104.8,96.2,108.3,93.6,111.4,92.3z"/>
	<path class="st0" d="M67.4,117.3c1.8-0.8,3.7-0.8,5.6-0.8c25.3,0.1,50.7,0,76.1,0c3.2,0,6.4,1.5,8.4,4c1.8,2.2,1.5,5.4,0.9,7.9
		c-2,3.1-5.6,5.2-9.3,5c-25.3,0-50.7-0.1-76,0c-4.4,0.5-9-1.7-10.9-5.7C60.1,123.6,63.5,118.9,67.4,117.3z"/>
	<path class="st0" d="M170.4,117.3c5.6-1.6,12.9-1.5,16.7,3.5c2.3,2.7,1.8,7.1-0.9,9.4c-3.6,3.9-9.4,3.6-14.2,3
		c-3.8-0.9-8.1-3.9-7.8-8.3C163.9,121.3,167.2,118.5,170.4,117.3z"/>
	<path class="st0" d="M99.3,142.2c2.4-0.9,5.1-0.6,7.7-0.7c9.7,0.1,19.4-0.1,29.1,0.1c4.7,0.3,10.1,4.1,9.4,9.4
		c-0.8,4.7-5.9,7.7-10.4,7.5c-10.7,0-21.4,0-32.1,0c-4.5,0.2-9.3-2.9-10.2-7.5C92.2,146.8,95.6,143.4,99.3,142.2z"/>
	<path class="st0" d="M157.4,142.3c5.8-1.7,13.5-1.2,17,4.3c3.1,4.9-1.5,10.6-6.4,11.6c-5.1,0.7-11.2,1-15-3.1
		c-2.3-1.8-2-5.1-1.5-7.7C152.4,144.9,154.9,143.3,157.4,142.3z"/>
</g>
<g id="_x23_24e38fff">
	<path class="st1" d="M117.6,0h21.6c6.8,2.1,13.9,2.6,20.7,4.9c41.5,11.7,75.6,46.5,86.1,88.4c1.7,7.3,2.9,14.8,4.1,22.2v18.8
		c-1.1,9.4-2.4,18.9-5.7,27.8c-12.5,41.9-49,75.7-91.9,84.7c-6.3,1.2-12.7,2.2-19,3.1h-23.6c-5.2-1.8-10.7-2.4-16-3.8
		c-10.1-3-20.1-6.5-29.2-11.8c-28.9-15.9-51-43.6-59.9-75.4C2.5,152.5,2,145.6,0,139v-20.4c1.4-10.9,2.6-21.9,6.2-32.3
		c10.7-32.9,35.7-60.7,67.1-75C87.2,4.7,102.3,1.3,117.6,0 M111.4,92.3c-3.1,1.3-6.6,3.9-6.2,7.7c-0.3,5.1,5.3,8.3,9.8,8.5
		c15.3,0.1,30.7,0,46.1,0c5,0.3,11-3,11.2-8.5c-0.2-5.1-5.5-8.4-10.2-8.4c-14.7-0.1-29.4,0.1-44,0C115.8,91.6,113.4,91.4,111.4,92.3
		 M67.4,117.3c-3.9,1.6-7.3,6.2-5.3,10.5c1.9,4.1,6.5,6.2,10.9,5.7c25.3-0.1,50.7,0,76,0c3.7,0.2,7.4-1.9,9.3-5
		c0.6-2.6,0.9-5.8-0.9-7.9c-2-2.5-5.2-4-8.4-4c-25.4,0-50.7,0-76.1,0C71.1,116.6,69.1,116.5,67.4,117.3 M170.4,117.3
		c-3.2,1.2-6.4,3.9-6.1,7.7c-0.3,4.4,4,7.3,7.8,8.3c4.8,0.5,10.6,0.9,14.2-3c2.7-2.3,3.2-6.7,0.9-9.4
		C183.3,115.8,175.9,115.7,170.4,117.3 M99.3,142.2c-3.7,1.2-7.2,4.6-6.6,8.7c0.9,4.6,5.7,7.7,10.2,7.5c10.7,0,21.4,0,32.1,0
		c4.5,0.2,9.7-2.7,10.4-7.5c0.7-5.3-4.7-9.1-9.4-9.4c-9.7-0.2-19.4,0-29.1-0.1C104.4,141.6,101.8,141.3,99.3,142.2 M157.4,142.3
		c-2.4,1-4.9,2.6-5.9,5.1c-0.5,2.6-0.8,5.9,1.5,7.7c3.8,4.1,9.9,3.8,15,3.1c4.9-1,9.5-6.8,6.4-11.6
		C170.8,141.1,163.1,140.6,157.4,142.3z"/>
</g>
</svg>
